X: 1
T:A Reel
M:2/2
L:1/8
S:Armitt MS
N:
K:A Major
AEcB AFFG AEcA B2 Bc|AEcB AFFc|dfce BABc:||:eeec fffa eeeB AGAB|eeed fff
a faec BABc:||:EAAc AEAc|ceea feea|EAAc AEAc dfce BABc:||:aefe aefe|aefe
((3fga) ((3gab) aefe aefe|faec BABc:
